X:43
T:Sean Ryans (1)
R:Jig
S:Paddy Canny and Peter O'Loughlin, Clare (fiddles)
N:As played (P O'L much the louder)
Z:Bernie Stocks
M:6/8
K:G
c2A {c}BAG | AGE DB,G, | ~A,3 EDB, | DEG AGE | c2A (3BcdB | AGE DB,G, | 
~A,3 EDB, |1 DB,G, A,3 :|2 DB,G, A,2c ||{d}cBA ~a3 | bag edB | GBd ~g3 | 
GBd cBA | ~c3 ~d3| ede gab | age dBG |1 EFG A2c :|2 EFG A3 ||
<end>
<start>
